X: 1
%
T:Hamar Ower da Taing
M:4/4
L:1/8
R:reel
K:Amix
|:c>A (3AAA (cd)ec|d(dfd) gdfd|c>A (3AAA (cd)ec|defg e2e2:|
a2 (af gf)ec|d(dfd) gdfd|a2 (af gf)ec|defg e2e2|
a2 (af gf)ec|d(dfd) gdfd|c>A (3AAA (cd)ec|defg e4||

